symbols/be/PVR-{130}.svg

<?xml version="1.0" encoding="UTF-8" standalone="no"?>
<!-- Initially created with Inkscape, optimized by hand -->

<svg
   version="1.1"
   width="20"
   height="17.320999"
   id="svg1"
   xmlns="http://www.w3.org/2000/svg"
   xmlns:svg="http://www.w3.org/2000/svg">
  <defs
     id="defs1" />
  <path
     id="Fond"
     d="M 20,17.320999 H 0 L 10,-1.2114258e-6 Z"
     fill="#0b9b7b"
     style="stroke-width:0.1" />
  <path
     style="font-size:10.6667px;font-family:Isonorm;-inkscape-font-specification:'Isonorm, Normal';fill:#ffffff;fill-rule:evenodd;stroke-width:0.377953;stroke-linejoin:bevel"
     d="M 8.840738,15.130489 V 8.7411348 c 0,-0.106667 -0.032,-0.192 -0.106667,-0.266667 -0.064,-0.07467 -0.362668,-0.149334 -0.501335,-0.01067 l -1.429338,1.429338 c -0.149334,0.1493342 -0.096,0.4266682 0.01067,0.5333352 0.096,0.106667 0.352002,0.128 0.490669,-0.01067 L 8.126073,9.5837988 V 15.14115 c 0,0.192 0.170667,0.352001 0.362667,0.352001 0.192001,0 0.352002,-0.160001 0.352002,-0.362668 z m 4.448002,-1.418671 v -0.704003 c 0,-0.597335 -0.27733,-1.184003 -0.69333,-1.429337 0.352,-0.288001 0.64,-0.81067 0.64,-1.397338 0,-0.5013352 -0.128,-0.8640032 -0.43734,-1.2160042 -0.288,-0.330668 -0.77867,-0.565335 -1.33333,-0.565335 H 10.0354 c -0.192003,0 -0.352003,0.170667 -0.352003,0.362668 0,0.192 0.16,0.352001 0.352003,0.352001 h 1.42934 c 0.33066,0 0.608,0.128 0.78933,0.330668 0.21334,0.224 0.27734,0.7253352 0.27734,0.7253352 0,0.330668 -0.096,0.565335 -0.34134,0.789336 -0.224,0.202667 -0.42667,0.266667 -0.72533,0.266667 h -0.67201 c -0.192,0 -0.352,0.160001 -0.352,0.352002 0,0.192 0.16,0.362667 0.352,0.362667 h 0.71467 c 0.29867,0 0.512,0.064 0.72534,0.266668 0.256,0.224001 0.34133,0.458668 0.34133,0.800002 v 0.704003 c 0,0.309334 -0.0533,0.512001 -0.26667,0.746669 -0.18133,0.192 -0.45866,0.320001 -0.8,0.320001 h -1.41867 c -0.191999,0 -0.352,0.170667 -0.352,0.362668 0,0.192 0.160001,0.352001 0.352,0.352001 h 1.41867 c 0.56534,0 1.04534,-0.224001 1.34401,-0.565335 0.29866,-0.341335 0.43733,-0.704003 0.43733,-1.216004 z"
     id="text1"
     aria-label="13" />
</svg>

<?xml version="1.0" encoding="UTF-8"?>
<svg xmlns="http://www.w3.org/2000/svg" xmlns:xlink="http://www.w3.org/1999/xlink" width="20" height="17.320999" viewBox="0 0 20 17.320999">
<path fill-rule="nonzero" fill="rgb(4.313725%, 60.784314%, 48.235294%)" fill-opacity="1" d="M 20 17.320312 L 0 17.320312 L 10 0 Z M 20 17.320312 "/>
<path fill-rule="evenodd" fill="rgb(100%, 100%, 100%)" fill-opacity="1" d="M 8.839844 15.128906 L 8.839844 8.742188 C 8.839844 8.632812 8.808594 8.550781 8.734375 8.472656 C 8.671875 8.398438 8.371094 8.324219 8.234375 8.464844 L 6.804688 9.894531 C 6.652344 10.042969 6.707031 10.320312 6.8125 10.425781 C 6.910156 10.53125 7.167969 10.554688 7.304688 10.414062 L 8.125 9.582031 L 8.125 15.140625 C 8.125 15.332031 8.296875 15.492188 8.488281 15.492188 C 8.679688 15.492188 8.839844 15.332031 8.839844 15.128906 Z M 13.289062 13.710938 L 13.289062 13.007812 C 13.289062 12.410156 13.011719 11.824219 12.59375 11.578125 C 12.949219 11.289062 13.234375 10.769531 13.234375 10.179688 C 13.234375 9.679688 13.105469 9.316406 12.796875 8.964844 C 12.511719 8.632812 12.019531 8.398438 11.464844 8.398438 L 10.035156 8.398438 C 9.84375 8.398438 9.683594 8.570312 9.683594 8.761719 C 9.683594 8.953125 9.84375 9.113281 10.035156 9.113281 L 11.464844 9.113281 C 11.796875 9.113281 12.074219 9.242188 12.253906 9.445312 C 12.46875 9.667969 12.53125 10.171875 12.53125 10.171875 C 12.53125 10.5 12.433594 10.734375 12.191406 10.960938 C 11.964844 11.164062 11.761719 11.226562 11.464844 11.226562 L 10.792969 11.226562 C 10.601562 11.226562 10.441406 11.386719 10.441406 11.578125 C 10.441406 11.769531 10.601562 11.941406 10.792969 11.941406 L 11.507812 11.941406 C 11.804688 11.941406 12.019531 12.003906 12.234375 12.207031 C 12.488281 12.433594 12.574219 12.667969 12.574219 13.007812 L 12.574219 13.710938 C 12.574219 14.019531 12.519531 14.222656 12.308594 14.457031 C 12.125 14.652344 11.847656 14.777344 11.507812 14.777344 L 10.089844 14.777344 C 9.898438 14.777344 9.738281 14.949219 9.738281 15.140625 C 9.738281 15.332031 9.898438 15.492188 10.089844 15.492188 L 11.507812 15.492188 C 12.074219 15.492188 12.554688 15.269531 12.851562 14.929688 C 13.148438 14.585938 13.289062 14.222656 13.289062 13.710938 Z M 13.289062 13.710938 "/>
</svg>
